X:672
T:The hearty boys of Ballymoate
R:Jig
O:Ireland
D:De Danann: Song for Ireland
D:Jerry Holland: The Fiddlesticks Collection
S:various web abc's
Z:Transcription:??, chords:Mike Long
M:6/8
L:1/8
K:D
|:E/2F/2|\
"Em"GEE B,EE|"D"~F3 DFA|"Em"GEE B,EE|"D"{G}FED "Em"E2F|\
"Em"GEE B,EE|"D"~F3 DFA|"Em"Bee "G"B/2c/2dB|"D"AFD "Em"E2:|
|:c|\
"G"d2 d {e}dcB|"D"AFD FGA|"Em"Bee ede|"Bm"fed B2c|\
"G"~d3 dcB|"D"AFD FGA|"Em"Bee "G"B/2c/2dB|"D"AFD "Em"E2:|
